X: 28731
T: My Former Wife
R: jig
M: 6/8
K: Adorian
E (3.A.c.A ABd|BGG cBA|{d}BGE E(3EEE|~G2.A GED|
E (3.A.c.A ABd|BGB ABd|ece gdB|BAG .A2G||
E (3.A.c.A ABd|~B3 cBA|{d}BGE E(3EEE|~G2.A GED|
E (3.A.c.A ABd|(3 BGF B ABd|(3e.c.A e gdB|BAG .A2d||
eaa abc'|bag (3 abag|ede ~g2.a|gba ged|
eaa abc'|bag age|def gdB|B.A.A .ABd||
eaa abc'|bag aag|ede ~g2.a|gba ged|
eaa abc'|bag age|def gdB|B.A.A A3||

